X: 7485
T: Coachman's Whip, The
R: reel
M: 4/4
K: Gmajor
ge|d2GG G2Bd|e2dB A2GA|BEE2 BGAB|BGGE Dgge|
d2GG G2Bd|e2dB A2GA|BGAG EDBA|GEED G2:|
B2AG EDBA|G2AD EDBA|B2AG EDBA|BEE2 B2GA|
B2AG EDBA|G2AD EDBA|B2AG EDBA|BDAE G4:|

